X: 344
T: Fang shao
%%abc-version 2.0
%%abcx-abcm2ps-target-version 5.9.1 (29 Sep 2008)
%%abc-creator hum2abc beta
%%abcx-conversion-date 2013/10/02 07:52:30
%%abc-edited-by Helmut Schaffrath
%%humdrum-veritas 2948006262
%%humdrum-veritas-data 1382976216
%%continueall 1
%%barnumbers 0
L: 1/16
M: 2/4
K: C
G2 G2 c2 d e [I:setbarnb 1]| 
c2 B AG4 | 
c2> F2 G2 A G | 
F2 E DC4 | 
G2> D2 E2 A2 | 
G2 D EC4 | 
F2 E2 G2 D E | 
C8 |]  



